assets/icons/24px/outline/arrow-thick-up-24px.svg

<svg width="24" height="24" viewBox="0 0 24 24" fill="none" xmlns="http://www.w3.org/2000/svg">
<path d="M14.8284 4.82843L16.2426 6.24264C17.1097 7.10973 17.5433 7.54328 17.7716 8.09459C18 8.6459 18 9.25903 18 10.4853V19.5858C18 20.6133 18 21.127 17.6913 21.2548C17.3827 21.3827 17.0194 21.0194 16.2929 20.2929L14.8284 18.8284C13.4951 17.4951 12.8284 16.8284 12 16.8284C11.1716 16.8284 10.5049 17.4951 9.17157 18.8284L7.70711 20.2929C6.98058 21.0194 6.61732 21.3827 6.30866 21.2548C6 21.127 6 20.6133 6 19.5858V10.4853C6 9.25903 6 8.6459 6.22836 8.09459C6.45672 7.54328 6.89027 7.10973 7.75736 6.24264L9.17157 4.82843C10.5049 3.49509 11.1716 2.82843 12 2.82843C12.8284 2.82843 13.4951 3.49509 14.8284 4.82843Z" stroke="white" stroke-width="2" stroke-linecap="round" stroke-linejoin="round"/>
</svg>

<svg width="24" height="24" fill="none" xmlns="http://www.w3.org/2000/svg"><path d="M14.828 4.828l1.415 1.415c.867.867 1.3 1.3 1.529 1.852.228.55.228 1.164.228 2.39v9.1c0 1.028 0 1.542-.309 1.67-.308.128-.672-.236-1.398-.962l-1.465-1.465c-1.333-1.333-2-2-2.828-2-.828 0-1.495.667-2.828 2l-1.465 1.465c-.726.726-1.09 1.09-1.398.962C6 21.127 6 20.613 6 19.585v-9.1c0-1.226 0-1.84.228-2.39.229-.552.662-.985 1.53-1.852l1.414-1.415c1.333-1.333 2-2 2.828-2 .828 0 1.495.667 2.828 2z" stroke="#fff" stroke-width="2" stroke-linecap="round" stroke-linejoin="round"/></svg>
